X:1     
T:He That Will Not Merry Merry Be  
B:Sabine Baring Gould, 1895, Old English Songs from English Minstrelsie, 1895
F: http://www.folkinfo.org/songs
M:4/4     %Meter
L:1/8     %
K:Bb
G2 B2 A2 c2 |B A G A ^F2 DD |G2 (AB) (cB) (AB) |G6 
w:He that will not mer-ry, mer-ry be With a gen-'rous_ bowl_ and_ toast, 
D2 |G2 B2 A2 c2 |(BA) (GA) ^F2 D2 |G2 (AB) (cB) (AB) |G6 
w:May he in Bride-well be_ shut_ up And bound un-*to_ a_ post.
A2 |B2 (Bc) d2 (de) |(de) (dc) B2 B2 |B2 AB (cd) (cB) |A6 
w:Let him be_ mer-ry_ mer-*ry_ there, And we will be mer-*ry_ here; 
Hd2 |c2 B2 A2 c2 |B2 G2 ^F2 DD |G2 G B (cB) (AB) |G4 
w:For who can know where we may go To be mer-ry an-o-*ther_ year,
D4 |F6 D D |G2 A B (cB) (AB) |G8 |]
w:brave boys, To be mer-ry an-o-*ther_ year.